X: 259
T:Goodbye Miss Goodavich
C:Donogh Hennessy
D:Lnasa Otherworld
N:Played on Low F whistle on the recording
R:reel
M:C|
Z: Spencer Nitchie
K:G
eBBB cBAG|AEGA DE A2|B/2c/2ded geag|
fffa gfed|eBBB cBAG|AEGA DEG2|GeBG FdAF|
FEBA GEGA|BzBB cBAG|AEGA DEG2|B/2c/2ded geag|
fffa gfed|eBBB cBAG|AEGA DEG2|GeBG FdAF|
FEBA GEGA|:BDG/2A/2B edcB|AFFF DFFF|B/2c/2dfd aaab|
geed efga|bz bg efg/2f/2e|adfa bagf|geBG FdAF
|1 G/2F/2EBA GEGA:|2 G/2F/2EBA GEB/2c/2d|

